src/apple/MapleUITests/Fixtures/sidecar/test_0002-maple-wb.xmp
<?xpacket begin="﻿" id="W5M0MpCehiHzreSzNTczkc9d"?>
<x:xmpmeta xmlns:x="adobe:ns:meta/">
  <rdf:RDF xmlns:rdf="http://www.w3.org/1999/02/22-rdf-syntax-ns#">
    <rdf:Description
      xmlns:crs="http://ns.adobe.com/camera-raw-settings/1.0/"
      xmlns:xmp="http://ns.adobe.com/xap/1.0/"
      xmlns:papp="http://ns.justmaple.app/1.0/"
      crs:Temperature="8475.5"
        crs:Tint="11.11"
        papp:WbScaleVersion="5"
        crs:Exposure2012="0.45"
        crs:Contrast2012="8"
        crs:Highlights2012="19"
        crs:Shadows2012="0"
        crs:Whites2012="0"
        crs:Blacks2012="0"
        crs:Vibrance="0"
        crs:Saturation="19"
        crs:Clarity2012="16"
        crs:Texture="0"
        crs:Dehaze="15"
        crs:Sharpness="40"
        crs:SharpenRadius="1.0"
        crs:SharpenDetail="25"
        crs:SharpenEdgeMasking="0"
        papp:CaptureSharpeningAmount="0"
        papp:CaptureSharpeningSigma="1.0"
        crs:LuminanceSmoothing="0"
        crs:ColorNoiseReduction="25"
        xmp:Rating="0"/>
  </rdf:RDF>
</x:xmpmeta>
<?xpacket end="w"?>
